assets/img/bg/pr-shape.svg

<svg xmlns="http://www.w3.org/2000/svg" width="825" fill="none" viewBox="0 0 825 914"><path fill="#000" d="M825 629.839 680.403 769.113 541.129 913.71H0V133.064l67.78-65.285L133.063 0H825zm-26.54 83.223c9.953-9.586 26.54-2.532 26.54 11.287 0 4.131-1.632 8.095-4.54 11.03l-93.543 94.386-81.723 79.627a15.22 15.22 0 0 1-10.619 4.318c-13.42 0-20.269-16.108-10.96-25.773l86.159-89.453zM825 913.71H711.896l55.492-57.613L825 800.604z"/></svg>

<svg width="825" viewBox="0 0 825 914" fill="none" xmlns="http://www.w3.org/2000/svg">
<path d="M825 629.839L680.403 769.113L541.129 913.71H0V133.064L67.7793 67.7793L133.064 0H825V629.839ZM798.46 713.062C808.413 703.476 825 710.53 825 724.349C825 728.48 823.368 732.444 820.46 735.379L726.917 829.765L645.194 909.392C642.353 912.16 638.542 913.71 634.575 913.71C621.155 913.71 614.306 897.602 623.615 887.937L709.774 798.484L798.46 713.062ZM825 913.71H711.896L767.388 856.097L825 800.604V913.71Z" fill="black" />
</svg>
